X:1
T:I Surrender All
T:Text: Judson W. Van DeVenter (1855-1939) Tune: Winfield S. Weeden (1847-1908)
T:87 87 Refrain SURRENDER www.hymnary.org/text/all_to_jesus_i_surrender
T:I Surrender All
T:This hymn is in the public domain.  You may freely use this score for personal and congregational worship.  If you reproduce the score, please credit Hymnary.org as the source. 
T:This hymn is in the public domain.  You may freely use this score for personal and congregational worship.  If you reproduce the score, please credit Hymnary.org as the source. 
Z:This hymn is in the public domain.  You may freely use this score for personal and congregational worship.  If you reproduce the score, please credit Hymnary.org as the source.
%%score ( 1 2 ) ( 3 4 )
L:1/8
M:4/4
K:Db
V:1 treble nm="Piano" snm="Pno."
V:2 treble 
V:3 bass nm="Piano" snm="Pno."
V:4 bass 
V:1
 [DF]3 [DF] [DG]2 [DF]2 | [CE]3 [CE] [CF]2 [CE]2 | D3 D [DG]2 [DF]2 | [CE]2 [CF]2 D4 | %4
w: 3~All to Je- sus|I sur- ren- der,|make me, Sa- vior,|whol- ly thine;|
w: 1~All to Je- sus|I sur- ren- der,|all to him I|free- ly give;|
w: 2~All to Je- sus|I sur- ren- der,|hum- bly at his|feet I bow,|
 [DF]3 [DF] [DG]2 [DF]2 | [CE]3 [CE] [CF]2 [CE]2 | D3 D [DG]2 [DF]2 | [CE]2 [CF]2 D4 || %8
w: may thy Ho- ly|Spi- rit fill me,|may I know thy|power di- vine.|
w: I will e- ver|love and trust him,|in his pre- sence|dai- ly live.|
w: world- ly plea- sures|all for- sa- ken:|take me, Je- sus,|take me now.|
"^Refrain" [Fd]3 [Ac] [GB]2 [FA]2 | [EG]8 | [Ac]3 [GB] [FA]2 [EG]2 | [DF]8 | %12
w: I sur- ren- der|all,|I sur- ren- der|all,|
w: ||||
w: ||||
 [DF]3 [EG] [GB]2 [FA]2 | [Fd]3 [Ac] [Ac]2 [GB]2 | [FA]3 [EG] [DF]2 [CE]2 | [DD]8 |] %16
w: all to thee, my|bles- sed Sa- vior,|I sur- ren- der|all.|
w: ||||
w: ||||
V:2
 x8 | x8 | D3 D x4 | x4 D4 | x8 | x8 | D3 D x4 | x4 D4 || x8 | x8 | x8 | x8 | x8 | x8 | x8 | x8 |] %16
V:3
 [D,A,]3 [D,A,] [D,B,]2 [D,A,]2 | [A,,G,]3 [A,,G,] [A,,A,]2 [A,,G,]2 | %2
w: ||
 [D,F,]3 [D,F,] [D,B,]2 [D,A,]2 | [A,,G,]2 [A,,A,]2 [D,F,]4 | [D,A,]3 [D,A,] [D,B,]2 [D,A,]2 | %5
w: |||
 [A,,G,]3 [A,,G,] [A,,A,]2 [A,,G,]2 | [D,F,]3 [D,F,] [D,B,]2 [D,A,]2 | [A,,G,]2 [A,,A,]2 [D,F,]4 || %8
w: |||
 [D,A,]3 [D,A,] [D,D]2 [D,D]2 | [A,,C][A,,C][C,C][E,C] [A,,C]4 | %10
w: |I sur- ren- der all|
 [A,,A,]3 [A,,A,] [A,,A,]2 [A,,A,]2 | [D,A,][D,A,]A,A, [D,A,]4 | [D,A,]3 [D,A,] [D,D]2 [D,D]2 | %13
w: |I sur- ren- der all,||
 [D,A,]3 [F,D] [G,D]2 [G,D]2 | [A,D]3 A, [A,,A,]2 [A,,G,]2 | [D,F,]8 |] %16
w: |||
V:4
 x8 | x8 | x8 | x8 | x8 | x8 | x8 | x8 || x8 | x8 | x8 | x2 F,A, x4 | x8 | x8 | x3 A, x4 | x8 |] %16

